X: 18573
T: I Ne'er Shall Wean Her
R: jig
M: 6/8
K: Adorian
EGG GED|EGG c2 B|AcA AGA|cde e2 d|
cde g2 a|ged c2 d|e2 a edB|cAG A2:|
e2 g ged|egg g2 d|e2 a aga|bag a2 g|
cc/d/e g2 a|ged c2 B|Aaa e2 d|cAG A2:|

